src/assets/backgrounds/constcash.svg

<svg xmlns="http://www.w3.org/2000/svg" width="204.304" height="73.245"><defs><linearGradient id="a" x1=".12" y1=".345" x2="1" y2=".563" gradientUnits="objectBoundingBox"><stop offset="0" stop-color="#e7a649"/><stop offset="1" stop-color="#b9476d"/></linearGradient></defs><g data-name="Component 5 – 5"><path data-name="Union 10" d="M167.871 73.24h-.005l-32.855-32.851-32.854 32.856-32.864-32.856-32.854 32.856h-.005L0 36.816l3.579-3.58 32.855 32.855 32.854-32.854h.005l32.854 32.854 32.854-32.854h.005l32.854 32.854 32.854-32.854 3.579 3.58-36.418 36.428zm0-17.087h-.005L135.011 23.3l-32.854 32.858L69.293 23.3 36.439 56.158h-.005L0 19.731l3.579-3.579 32.855 32.854 32.854-32.854h.005l32.854 32.854 32.854-32.854h.005l32.854 32.854 32.854-32.854 3.579 3.579-36.418 36.427zm0-16.15h-.005L135.011 7.154l-32.854 32.854L69.293 7.154 36.439 40.008h-.005L0 3.58 3.579 0l32.855 32.854L69.288 0h.005l32.854 32.854L135.006 0h.005l32.854 32.854L200.725 0l3.575 3.58-36.425 36.428z" fill="url(#a)" transform="rotate(-180 102.152 36.622)"/></g></svg>

<svg xmlns="http://www.w3.org/2000/svg" xmlns:xlink="http://www.w3.org/1999/xlink" width="204.304" height="73.245" viewBox="0 0 204.304 73.245">
  <defs>
    <linearGradient id="linear-gradient" x1="0.12" y1="0.345" x2="1" y2="0.563" gradientUnits="objectBoundingBox">
      <stop offset="0" stop-color="#e7a649"/>
      <stop offset="1" stop-color="#b9476d"/>
    </linearGradient>
  </defs>
  <g id="Component_5_5" data-name="Component 5 – 5" transform="translate(204.304 73.245) rotate(-180)">
    <path id="Union_10" data-name="Union 10" d="M167.871,73.24l-.005,0L135.011,40.389,102.157,73.245l0,0,0,0L69.293,40.389,36.439,73.245l0,0-.005,0L0,36.816l3.579-3.58L36.434,66.091,69.288,33.237l.005,0,0,0,32.854,32.854,32.854-32.854.005,0,0,0,32.854,32.854,32.854-32.854,3.579,3.58L167.875,73.245Zm0-17.087-.005,0L135.011,23.3,102.157,56.158l0,0,0,0L69.293,23.3,36.439,56.158l0,0-.005,0L0,19.731l3.579-3.579L36.434,49.006,69.288,16.152l.005,0,0,0,32.854,32.854,32.854-32.854.005,0,0,0,32.854,32.854,32.854-32.854,3.579,3.579L167.875,56.158Zm0-16.15-.005,0L135.011,7.154,102.157,40.008l0,0,0,0L69.293,7.154,36.439,40.008l0,0-.005,0L0,3.58,3.579,0,36.434,32.854,69.288,0l.005,0,0,0,32.854,32.854L135.006,0l.005,0,0,0,32.854,32.854L200.725,0,204.3,3.58,167.875,40.008Z" fill="url(#linear-gradient)"/>
  </g>
</svg>
